Numix-Circle/48x48/applications/calligrakrita.svg

<?xml version="1.0" encoding="UTF-8" standalone="no"?>
<svg id="svg2" xmlns:rdf="http://www.w3.org/1999/02/22-rdf-syntax-ns#" xmlns="http://www.w3.org/2000/svg" height="48" width="48" version="1.1" xmlns:cc="http://creativecommons.org/ns#" xmlns:xlink="http://www.w3.org/1999/xlink" viewBox="0 0 13.546667 13.546667" xmlns:dc="http://purl.org/dc/elements/1.1/">
 <metadata id="metadata22">
  <rdf:RDF>
   <cc:Work rdf:about="">
    <dc:format>image/svg+xml</dc:format>
    <dc:type rdf:resource="http://purl.org/dc/dcmitype/StillImage"/>
    <dc:title/>
   </cc:Work>
  </rdf:RDF>
 </metadata>
 <defs id="defs4">
  <linearGradient id="linearGradient3810" y2="12.618277" gradientUnits="userSpaceOnUse" x2="4.7446089" y1="2.2577779" x1="8.4666672">
   <stop id="stop7" stop-color="#cb62c0" offset="0"/>
   <stop id="stop9" stop-color="#91dbce" offset="1"/>
  </linearGradient>
  <radialGradient id="radialGradient3899" gradientUnits="userSpaceOnUse" cy="10.33237" cx="10.389771" gradientTransform="matrix(1.19371,-1.2494299,0.72304552,0.69080039,-9.483376,16.176056)" r="5.9264998">
   <stop id="stop3895" stop-color="#dbe34a" offset="0"/>
   <stop id="stop3897" stop-color="#91dbce" stop-opacity="0" offset="1"/>
  </radialGradient>
  <linearGradient id="linearGradient3909" y2="18.259975" gradientUnits="userSpaceOnUse" x2="-40.638184" gradientTransform="matrix(0.21750833,0,0,0.20965028,14.673508,2.6456699)" y1="59.631809" x1="-22.763607">
   <stop id="stop3905" stop-color="#8890d0" offset="0"/>
   <stop id="stop3907" stop-color="#305fcd" stop-opacity="0" offset="1"/>
  </linearGradient>
 </defs>
 <rect id="rect14" opacity="0.5" fill-rule="evenodd" rx="6.4910002" height="12.982" width="12.982" y="0.28200001" x="0.28200001" fill="#FFF"/>
 <rect id="rect16" fill-rule="evenodd" rx="5.9260001" height="11.853" width="11.853" y="0.847" x="0.847" fill="url(#linearGradient3810)"/>
 <rect id="rect16-8" fill-rule="evenodd" rx="5.9259996" height="11.853" width="11.853" y="0.847" x="0.847" fill="url(#radialGradient3899)"/>
 <path id="path3901" fill="url(#linearGradient3909)" d="m1.6672481,6.4833361s1.8580373,3.7950269,4.6450928,4.3067159c2.7870562,0.511689,4.2469421-0.682252,3.8487931-1.8761944-0.3981515-1.1939402-2.4773846-2.3025993-3.760315-1.2792219-1.2829304,1.0233781-1.3271695,0.7248929-2.3004269,0.3411264-0.9732579-0.383767-1.5926034-2.3026001-1.5926034-2.3026001s-0.6193458-1.4497849-1.1059746-0.8101739c-0.48662856,0.6396112,0.265434,1.620348,0.265434,1.620348z"/>
 <path id="path3931" fill="#eeeeec" d="M15.125,13.0625c-0.380116,0.026765-0.927799,0.26331-1.71875,0.9375-1.506826,0.860826-1.020954,2.072338-0.65625,2.65625,0.260649-0.397653,0.723942-0.930804,1.5-1.65625,0.715316-0.668665,1.402505-0.986703,1.96875-1.15625l-0.3125-0.40625c-0.173464-0.21875-0.401134-0.401765-0.78125-0.375zm1.625,1.46875c-0.576253,0.140045-1.302834,0.413766-2.03125,0.96875-0.899866,0.685612-1.29085,1.297235-1.46875,1.71875l5.1875,4.375c0.215045-0.416933,0.489086-0.841386,0.875-1.25,0.416967-0.441495,0.819044-0.727457,1.1875-0.96875l-3.75-4.84375zm8.84375,4.8125c-0.300402,0.000224-0.611927,0.015354-0.90625,0.03125-1.386865,0.074903-2.660199,0.331785-3.625,0.625-0.017427,0.012417-0.044177-0.01355-0.0625,0-0.251136,0.185716-0.55048,0.477763-1,0.9375-0.409505,0.418812-0.706306,0.811034-0.90625,1.1875-0.011355,0.028918-0.020371,0.064422-0.03125,0.09375-1.085956,2.92763,0.204984,7.859437,4.96875,9,5.398138,1.292447,5.675543-0.101346,8,1.4375,2.324458,1.538845,1.015857,3.872051,2.125,3.21875,0.558446-0.328936,2.35929-2.783036,1.6875-6.78125-0.719942-4.284787-2.603502-6.560616-4.5-8.125-1.466795-1.209931-3.647188-1.626566-5.75-1.625z" transform="scale(0.28222223,0.28222223)"/>
</svg>

<?xml version="1.0" encoding="UTF-8" standalone="no"?>
<svg
   xmlns:dc="http://purl.org/dc/elements/1.1/"
   xmlns:cc="http://creativecommons.org/ns#"
   xmlns:rdf="http://www.w3.org/1999/02/22-rdf-syntax-ns#"
   xmlns:svg="http://www.w3.org/2000/svg"
   xmlns="http://www.w3.org/2000/svg"
   xmlns:xlink="http://www.w3.org/1999/xlink"
   xmlns:sodipodi="http://sodipodi.sourceforge.net/DTD/sodipodi-0.dtd"
   xmlns:inkscape="http://www.inkscape.org/namespaces/inkscape"
   width="48"
   viewBox="0 0 13.546667 13.546667"
   height="48"
   id="svg2"
   version="1.1"
   inkscape:version="0.48.4 r9939"
   sodipodi:docname="calligrakrita.svg">
  <metadata
     id="metadata22">
    <rdf:RDF>
      <cc:Work
         rdf:about="">
        <dc:format>image/svg+xml</dc:format>
        <dc:type
           rdf:resource="http://purl.org/dc/dcmitype/StillImage" />
        <dc:title></dc:title>
      </cc:Work>
    </rdf:RDF>
  </metadata>
  <sodipodi:namedview
     pagecolor="#ffffff"
     bordercolor="#666666"
     borderopacity="1"
     objecttolerance="10"
     gridtolerance="10"
     guidetolerance="10"
     inkscape:pageopacity="0"
     inkscape:pageshadow="2"
     inkscape:window-width="1366"
     inkscape:window-height="704"
     id="namedview20"
     showgrid="false"
     inkscape:zoom="3.4766083"
     inkscape:cx="16.798259"
     inkscape:cy="29.947613"
     inkscape:window-x="0"
     inkscape:window-y="27"
     inkscape:window-maximized="1"
     inkscape:current-layer="svg2">
    <inkscape:grid
       type="xygrid"
       id="grid3001" />
  </sodipodi:namedview>
  <defs
     id="defs4">
    <linearGradient
       id="linearGradient3903">
      <stop
         style="stop-color:#8890d0;stop-opacity:1;"
         offset="0"
         id="stop3905" />
      <stop
         style="stop-color:#305fcd;stop-opacity:0;"
         offset="1"
         id="stop3907" />
    </linearGradient>
    <linearGradient
       id="linearGradient3893">
      <stop
         id="stop3895"
         style="stop-color:#dbe34a;stop-opacity:1;"
         offset="0" />
      <stop
         id="stop3897"
         style="stop-color:#91dbce;stop-opacity:0;"
         offset="1" />
    </linearGradient>
    <linearGradient
       id="linearGradient3849">
      <stop
         id="stop3851"
         style="stop-color:#f9e347;stop-opacity:1;"
         offset="0" />
      <stop
         id="stop3853"
         style="stop-color:#b3f5eb;stop-opacity:0;"
         offset="1" />
    </linearGradient>
    <linearGradient
       id="linearGradient4460">
      <stop
         offset="0"
         style="stop-color:#cb62c0;stop-opacity:1;"
         id="stop7" />
      <stop
         offset="1"
         style="stop-color:#91dbce;stop-opacity:1;"
         id="stop9" />
    </linearGradient>
    <linearGradient
       gradientTransform="matrix(1.10526 0 0 1.10526 -134.28026 -295.76492)"
       xlink:href="#linearGradient4460"
       id="linearGradient3001"
       y1="279.096"
       y2="268.33"
       gradientUnits="userSpaceOnUse"
       x2="0" />
    <linearGradient
       inkscape:collect="always"
       xlink:href="#linearGradient4460"
       id="linearGradient3810"
       gradientUnits="userSpaceOnUse"
       x1="8.4666672"
       y1="2.2577779"
       x2="4.7446089"
       y2="12.618277" />
    <linearGradient
       inkscape:collect="always"
       xlink:href="#linearGradient4460-5"
       id="linearGradient3810-9"
       gradientUnits="userSpaceOnUse"
       x1="8.4666672"
       y1="2.2577779"
       x2="4.7446089"
       y2="12.618277" />
    <linearGradient
       id="linearGradient4460-5">
      <stop
         offset="0"
         style="stop-color:#db91d3;stop-opacity:1;"
         id="stop7-3" />
      <stop
         offset="1"
         style="stop-color:#b3f5eb;stop-opacity:1;"
         id="stop9-3" />
    </linearGradient>
    <linearGradient
       inkscape:collect="always"
       xlink:href="#linearGradient4460-8"
       id="linearGradient3810-5"
       gradientUnits="userSpaceOnUse"
       x1="8.4666672"
       y1="2.2577779"
       x2="4.7446089"
       y2="12.618277" />
    <linearGradient
       id="linearGradient4460-8">
      <stop
         offset="0"
         style="stop-color:#cb62c0;stop-opacity:1;"
         id="stop7-7" />
      <stop
         offset="1"
         style="stop-color:#91dbce;stop-opacity:1;"
         id="stop9-7" />
    </linearGradient>
    <radialGradient
       inkscape:collect="always"
       xlink:href="#linearGradient3893"
       id="radialGradient3899"
       cx="10.389771"
       cy="10.33237"
       fx="10.389771"
       fy="10.33237"
       r="5.9264998"
       gradientUnits="userSpaceOnUse"
       gradientTransform="matrix(1.19371,-1.2494299,0.72304552,0.69080039,-9.483376,16.176056)" />
    <linearGradient
       inkscape:collect="always"
       xlink:href="#linearGradient3903"
       id="linearGradient3909"
       x1="-22.763607"
       y1="59.631809"
       x2="-40.638184"
       y2="18.259975"
       gradientUnits="userSpaceOnUse"
       gradientTransform="matrix(0.21750833,0,0,0.20965028,14.673508,2.6456699)" />
  </defs>
  <rect
     id="rect14"
     style="opacity:0.5;fill:#ffffff;fill-rule:evenodd"
     height="12.982"
     rx="6.4910002"
     y="0.28200001"
     x="0.28200001"
     width="12.982" />
  <rect
     id="rect16"
     style="fill:url(#linearGradient3810);fill-opacity:1.0;fill-rule:evenodd"
     height="11.853"
     rx="5.9260001"
     y="0.847"
     x="0.847"
     width="11.853" />
  <rect
     id="rect16-8"
     style="fill:url(#radialGradient3899);fill-opacity:1;fill-rule:evenodd"
     height="11.853"
     rx="5.9259996"
     y="0.847"
     x="0.847"
     width="11.853" />
  <path
     style="fill:url(#linearGradient3909);fill-opacity:1;stroke:none"
     d="m 1.6672481,6.4833361 c 0,0 1.8580373,3.7950269 4.6450928,4.3067159 C 9.0993971,11.301741 10.559283,10.1078 10.161134,8.9138576 9.7629825,7.7199174 7.6837494,6.6112583 6.400819,7.6346357 5.1178886,8.6580138 5.0736495,8.3595286 4.1003921,7.9757621 3.1271342,7.5919951 2.5077887,5.673162 2.5077887,5.673162 c 0,0 -0.6193458,-1.4497849 -1.1059746,-0.8101739 -0.48662856,0.6396112 0.265434,1.620348 0.265434,1.620348 z"
     id="path3901"
     inkscape:connector-curvature="0" />
  <path
     style="fill:#eeeeec;fill-opacity:1;stroke:none"
     d="m 14.676891,0.75634021 c -0.09235,0.087818 1.053267,1.28986639 2.282144,2.34309679 0.612278,0.5247637 1.566154,1.1960872 2.36777,1.7411015 0.0062,0.064499 0.01745,0.2512486 0.0519,0.4390739 0.08119,0.4427269 0.5117,0.8026495 0.843316,0.9385313 0.331617,0.1358829 0.535127,0.1123071 0.594486,0.4012441 0.05936,0.2889371 -0.212178,0.4064021 -0.212178,0.4064021 0,0 0.109714,0.02415 0.227694,-0.01189 C 20.95,6.9778419 21.076263,6.8405965 21.193995,6.7007906 21.311728,6.560979 21.44869,6.1841558 21.411896,5.7549189 21.375102,5.3256821 21.149855,5.0630752 20.762068,4.7763479 20.502594,4.5844906 19.98532,4.5715067 19.727268,4.5317544 18.882597,3.7741524 17.883191,2.8833991 17.451613,2.5311719 16.742842,1.9527169 14.76924,0.66852331 14.676891,0.75634021 z"
     id="path3857"
     inkscape:connector-curvature="0"
     sodipodi:nodetypes="sscssscccsscss" />
  <path
     style="fill:#eeeeec;fill-opacity:1;stroke:none"
     d="M 15.125 13.0625 C 14.744884 13.089265 14.197201 13.32581 13.40625 14 C 11.899424 14.860826 12.385296 16.072338 12.75 16.65625 C 13.010649 16.258597 13.473942 15.725446 14.25 15 C 14.965316 14.331335 15.652505 14.013297 16.21875 13.84375 L 15.90625 13.4375 C 15.732786 13.21875 15.505116 13.035735 15.125 13.0625 z M 16.75 14.53125 C 16.173747 14.671295 15.447166 14.945016 14.71875 15.5 C 13.818884 16.185612 13.4279 16.797235 13.25 17.21875 L 18.4375 21.59375 C 18.652545 21.176817 18.926586 20.752364 19.3125 20.34375 C 19.729467 19.902255 20.131544 19.616293 20.5 19.375 L 16.75 14.53125 z M 25.59375 19.34375 C 25.293348 19.343974 24.981823 19.359104 24.6875 19.375 C 23.300635 19.449903 22.027301 19.706785 21.0625 20 C 21.045073 20.012417 21.018323 19.98645 21 20 C 20.748864 20.185716 20.44952 20.477763 20 20.9375 C 19.590495 21.356312 19.293694 21.748534 19.09375 22.125 C 19.082395 22.153918 19.073379 22.189422 19.0625 22.21875 C 17.976544 25.14638 19.267484 30.078187 24.03125 31.21875 C 29.429388 32.511197 29.706793 31.117404 32.03125 32.65625 C 34.355708 34.195095 33.047107 36.528301 34.15625 35.875 C 34.714696 35.546064 36.51554 33.091964 35.84375 29.09375 C 35.123808 24.808963 33.240248 22.533134 31.34375 20.96875 C 29.876955 19.758819 27.696562 19.342184 25.59375 19.34375 z "
     transform="scale(0.28222223,0.28222223)"
     id="path3931" />
</svg>
